!!!SOCIAL_FUNCTION:	songs for little children
!!!PDT:	1939
!!!OTL: No_121_Song_to_a_Little_Girl.krn
!!!LANG: Non-Tone
!!!LING_GROUP: Wakashan
!!!REG: Pacific Northwest
**kern
*staff1
=1-
*clefF4
*k[f#c#g#d#a#]
*M2/4
4r
8c#\L
8c#\J
=2
8e\L
8d#\J
8dn\L
8d\J
=3
8dn\L
8d\J
4c#\
=4
8d#\L
8d#\J
8d#\L
8d#\J
=5
8c#\L
8c#\J
8c#\L
8B\J
=6||
*M3/4
8c#\L
8c#\J
8B\L
8B\J
8B\
8r
=7
8d#\L
8d#\J
8c#\L
8c#\J
16c#\LL
16c#\J
8B\J
=8||
*M2/4
8c#\L
8c#\J
8B\L
8c#\J
=9
8c#\L
8d#\J
8c#\L
16c#\Jk
16r
=10!|:
8f#\L
8e\J
8d#\L
8e\J
=11
8d#\L
8d#\J
8c#\
8r
=12
8d#\L
8e\J
8d#\L
8d#\J
=13
8c#\L
8c#\J
8B\L
16G#\Jk
16r
=14||
*M3/4
8c#\L
8c#\J
8G#\L
8G#\J
8G#\
8r
=15
8d#\L
8d#\J
8B\L
8B\J
16B\LL
16A#\J
8G#\J
=16||
*M2/4
8B\L
8B\J
8G#\L
8B\J
=17
=
8B\
8r
8B\L
8B\J
=18:|!
4B\
4r
==
*-
